X: 5
T: Within A Mile Of Dublin
R: reel
M: 4/4
L: 1/8
K: Dmix
FG|ADDE FD (3EFG|ADDd c2 Bc|ADDE cDEG|AdcA GcEG|ADDE FD (3EFG|ADDd c2 Bc|ADDE cDEG|AdcA G2 FG||Addc AGFG|Adde fdec|Addc AGFG|AGcA GcEG|Addc AGFG|Adde fd (3efg|(3agf (3gfe (3fed ec|dcAF G2 FG|


Tune 125	Setting 12727

